lib/brands/icons/microsoft-edge.svg

<svg xmlns="http://www.w3.org/2000/svg" fill="none" aria-hidden="true" viewBox="0 0 48 48"><g id="microsoft-edge-Icon"><g id="edge"><path id="Vector" fill="url(#paint0_linear_94_16983)" d="M40.1014 33.7685C39.5682 34.0474 39.0183 34.2932 38.4548 34.5044C36.6611 35.1755 34.7611 35.5174 32.846 35.5136C25.4531 35.5136 19.0132 30.4283 19.0132 23.9024C19.0227 23.0272 19.2656 22.1703 19.7168 21.4202C20.168 20.6702 20.8113 20.0542 21.5801 19.6357C14.8934 19.917 13.1748 26.8849 13.1748 30.9673C13.1748 42.5097 23.8127 43.6799 26.1046 43.6799C27.3404 43.6799 29.2042 43.3206 30.3229 42.9675L30.5275 42.8987C34.8321 41.4106 38.5018 38.5013 40.9326 34.6497C41.0071 34.5324 41.0403 34.3936 41.0271 34.2553C41.0138 34.117 40.9549 33.987 40.8596 33.886C40.7642 33.7849 40.638 33.7185 40.5007 33.6972C40.3634 33.676 40.2229 33.701 40.1014 33.7685V33.7685Z"/><path id="Vector_2" fill="url(#paint1_radial_94_16983)" d="M40.1014 33.7685C39.5682 34.0474 39.0183 34.2932 38.4548 34.5044C36.6611 35.1755 34.7611 35.5174 32.846 35.5136C25.4531 35.5136 19.0132 30.4283 19.0132 23.9024C19.0227 23.0272 19.2656 22.1703 19.7168 21.4202C20.168 20.6702 20.8113 20.0542 21.5801 19.6357C14.8934 19.917 13.1748 26.8849 13.1748 30.9673C13.1748 42.5097 23.8127 43.6799 26.1046 43.6799C27.3404 43.6799 29.2042 43.3206 30.3229 42.9675L30.5275 42.8987C34.8321 41.4106 38.5018 38.5013 40.9326 34.6497C41.0071 34.5324 41.0403 34.3936 41.0271 34.2553C41.0138 34.117 40.9549 33.987 40.8596 33.886C40.7642 33.7849 40.638 33.7185 40.5007 33.6972C40.3634 33.676 40.2229 33.701 40.1014 33.7685V33.7685Z" opacity="0.35"/><path id="Vector_3" fill="url(#paint2_linear_94_16983)" d="M20.5197 41.7176C19.1262 40.8527 17.9185 39.7194 16.9669 38.3836C15.8823 36.8977 15.136 35.1924 14.7802 33.3875C14.4245 31.5825 14.4679 29.7216 14.9075 27.9352C15.3471 26.1489 16.1722 24.4803 17.325 23.0466C18.4777 21.6128 19.9302 20.4487 21.5805 19.6357C22.0679 19.4061 22.9006 18.9905 24.0083 19.0108C24.7887 19.0165 25.5572 19.2028 26.2535 19.5552C26.9499 19.9076 27.5552 20.4164 28.0219 21.0418C28.6528 21.8842 29.0007 22.9048 29.0156 23.9571C29.0156 23.9243 32.837 11.521 16.517 11.521C9.65838 11.521 4.01839 18.0297 4.01839 23.74C3.99134 26.7606 4.63766 29.7494 5.91037 32.489C7.99033 36.9269 11.6276 40.4464 16.1315 42.3793C20.6355 44.3121 25.6924 44.5236 30.342 42.9737C28.714 43.487 26.994 43.6411 25.3007 43.4253C23.6073 43.2095 21.981 42.629 20.5337 41.7239L20.5197 41.7176Z"/><path id="Vector_4" fill="url(#paint3_radial_94_16983)" d="M20.5197 41.7176C19.1262 40.8527 17.9185 39.7194 16.9669 38.3836C15.8823 36.8977 15.136 35.1924 14.7802 33.3875C14.4245 31.5825 14.4679 29.7216 14.9075 27.9352C15.3471 26.1489 16.1722 24.4803 17.325 23.0466C18.4777 21.6128 19.9302 20.4487 21.5805 19.6357C22.0679 19.4061 22.9006 18.9905 24.0083 19.0108C24.7887 19.0165 25.5572 19.2028 26.2535 19.5552C26.9499 19.9076 27.5552 20.4164 28.0219 21.0418C28.6528 21.8842 29.0007 22.9048 29.0156 23.9571C29.0156 23.9243 32.837 11.521 16.517 11.521C9.65838 11.521 4.01839 18.0297 4.01839 23.74C3.99134 26.7606 4.63766 29.7494 5.91037 32.489C7.99033 36.9269 11.6276 40.4464 16.1315 42.3793C20.6355 44.3121 25.6924 44.5236 30.342 42.9737C28.714 43.487 26.994 43.6411 25.3007 43.4253C23.6073 43.2095 21.981 42.629 20.5337 41.7239L20.5197 41.7176Z" opacity="0.41"/><path id="Vector_5" fill="url(#paint4_radial_94_16983)" d="M27.7999 27.2567C27.6733 27.4208 27.2843 27.6473 27.2843 28.141C27.2843 28.5488 27.5499 28.9409 28.0217 29.2706C30.2683 30.8329 34.5038 30.6267 34.5147 30.6267C36.1794 30.6227 37.8126 30.1722 39.2439 29.3221C40.6878 28.479 41.8862 27.2731 42.7201 25.8239C43.5541 24.3747 43.9946 22.7326 43.998 21.0606C44.0386 17.5594 42.7482 15.2315 42.2263 14.2004C38.9158 7.72458 31.7697 4 23.9987 4C18.7434 3.99948 13.699 6.06773 9.95668 9.75743C6.21436 13.4471 4.07488 18.4617 4.00098 23.7165C4.07597 18.0078 9.75033 13.3974 16.4996 13.3974C17.0464 13.3974 20.1648 13.4505 23.0613 14.9706C25.6142 16.3111 26.9515 17.9297 27.8811 19.5342C28.8466 21.2012 29.0185 23.3072 29.0185 24.1462C29.0185 24.9851 28.5904 26.2287 27.7999 27.2567V27.2567Z"/><path id="Vector_6" fill="url(#paint5_radial_94_16983)" d="M27.7999 27.2567C27.6733 27.4208 27.2843 27.6473 27.2843 28.141C27.2843 28.5488 27.5499 28.9409 28.0217 29.2706C30.2683 30.8329 34.5038 30.6267 34.5147 30.6267C36.1794 30.6227 37.8126 30.1722 39.2439 29.3221C40.6878 28.479 41.8862 27.2731 42.7201 25.8239C43.5541 24.3747 43.9946 22.7326 43.998 21.0606C44.0386 17.5594 42.7482 15.2315 42.2263 14.2004C38.9158 7.72458 31.7697 4 23.9987 4C18.7434 3.99948 13.699 6.06773 9.95668 9.75743C6.21436 13.4471 4.07488 18.4617 4.00098 23.7165C4.07597 18.0078 9.75033 13.3974 16.4996 13.3974C17.0464 13.3974 20.1648 13.4505 23.0613 14.9706C25.6142 16.3111 26.9515 17.9297 27.8811 19.5342C28.8466 21.2012 29.0185 23.3072 29.0185 24.1462C29.0185 24.9851 28.5904 26.2287 27.7999 27.2567V27.2567Z"/></g></g><defs><linearGradient id="paint0_linear_94_16983" x1="13.1748" x2="41.0373" y1="31.6609" y2="31.6609" gradientUnits="userSpaceOnUse"><stop stop-color="#0C59A4"/><stop offset="1" stop-color="#114A8B"/></linearGradient><radialGradient id="paint1_radial_94_16983" cx="0" cy="0" r="1" gradientTransform="matrix(14.9014 0 0 14.1564 28.564 31.88)" gradientUnits="userSpaceOnUse"><stop offset="0.72" stop-opacity="0"/><stop offset="0.95" stop-opacity="0.53"/><stop offset="1"/></radialGradient><linearGradient id="paint2_linear_94_16983" x1="27.8641" x2="10.4614" y1="19.5748" y2="38.5305" gradientUnits="userSpaceOnUse"><stop stop-color="#1B9DE2"/><stop offset="0.16" stop-color="#1595DF"/><stop offset="0.67" stop-color="#0680D7"/><stop offset="1" stop-color="#0078D4"/></linearGradient><radialGradient id="paint3_radial_94_16983" cx="0" cy="0" r="1" gradientTransform="rotate(-81.384 27.92 8.806) scale(22.4078 18.1032)" gradientUnits="userSpaceOnUse"><stop offset="0.76" stop-opacity="0"/><stop offset="0.95" stop-opacity="0.5"/><stop offset="1"/></radialGradient><radialGradient id="paint4_radial_94_16983" cx="0" cy="0" r="1" gradientTransform="matrix(-1.26504 31.6261 -67.35704 -2.69427 8.042 11.402)" gradientUnits="userSpaceOnUse"><stop stop-color="#35C1F1"/><stop offset="0.11" stop-color="#34C1ED"/><stop offset="0.23" stop-color="#2FC2DF"/><stop offset="0.31" stop-color="#2BC3D2"/><stop offset="0.67" stop-color="#36C752"/></radialGradient><radialGradient id="paint5_radial_94_16983" cx="0" cy="0" r="1" gradientTransform="matrix(4.25815 14.5994 -11.87222 3.46273 41.508 16.093)" gradientUnits="userSpaceOnUse"><stop stop-color="#66EB6E"/><stop offset="1" stop-color="#66EB6E" stop-opacity="0"/></radialGradient></defs></svg>

<svg xmlns="http://www.w3.org/2000/svg" fill="none" aria-hidden="true" viewBox="0 0 48 48"><path fill="url(#a)" d="M40.101 33.769c-.533.278-1.083.524-1.646.735a15.916 15.916 0 0 1-5.609 1.01c-7.393 0-13.833-5.086-13.833-11.612a4.92 4.92 0 0 1 2.567-4.266c-6.687.281-8.405 7.249-8.405 11.331 0 11.543 10.638 12.713 12.93 12.713 1.235 0 3.1-.36 4.218-.712l.204-.07a20.05 20.05 0 0 0 10.406-8.248.625.625 0 0 0-.832-.881Z"/><path fill="url(#b)" d="M40.101 33.769c-.533.278-1.083.524-1.646.735a15.916 15.916 0 0 1-5.609 1.01c-7.393 0-13.833-5.086-13.833-11.612a4.92 4.92 0 0 1 2.567-4.266c-6.687.281-8.405 7.249-8.405 11.331 0 11.543 10.638 12.713 12.93 12.713 1.235 0 3.1-.36 4.218-.712l.204-.07a20.05 20.05 0 0 0 10.406-8.248.625.625 0 0 0-.832-.881Z" opacity=".35"/><path fill="url(#c)" d="M20.52 41.718a12.374 12.374 0 0 1-3.553-3.334 12.611 12.611 0 0 1 4.614-18.748c.487-.23 1.32-.645 2.427-.625a5.054 5.054 0 0 1 4.014 2.03c.63.843.979 1.864.994 2.916 0-.033 3.821-12.436-12.499-12.436-6.859 0-12.499 6.509-12.499 12.219-.027 3.02.62 6.01 1.892 8.749a19.998 19.998 0 0 0 24.432 10.485 11.803 11.803 0 0 1-9.808-1.25l-.014-.006Z"/><path fill="url(#d)" d="M20.52 41.718a12.374 12.374 0 0 1-3.553-3.334 12.611 12.611 0 0 1 4.614-18.748c.487-.23 1.32-.645 2.427-.625a5.054 5.054 0 0 1 4.014 2.03c.63.843.979 1.864.994 2.916 0-.033 3.821-12.436-12.499-12.436-6.859 0-12.499 6.509-12.499 12.219-.027 3.02.62 6.01 1.892 8.749a19.998 19.998 0 0 0 24.432 10.485 11.803 11.803 0 0 1-9.808-1.25l-.014-.006Z" opacity=".41"/><path fill="url(#e)" d="M27.8 27.257c-.127.164-.516.39-.516.884 0 .408.266.8.738 1.13 2.246 1.562 6.482 1.356 6.493 1.356a9.305 9.305 0 0 0 4.729-1.305 9.589 9.589 0 0 0 4.754-8.261c.04-3.502-1.25-5.83-1.772-6.86C38.916 7.724 31.77 4 24 4A19.998 19.998 0 0 0 4 23.716c.075-5.708 5.75-10.319 12.499-10.319.546 0 3.665.053 6.561 1.574 2.553 1.34 3.89 2.959 4.82 4.563.966 1.667 1.137 3.773 1.137 4.612 0 .84-.428 2.083-1.218 3.11Z"/><path fill="url(#f)" d="M27.8 27.257c-.127.164-.516.39-.516.884 0 .408.266.8.738 1.13 2.246 1.562 6.482 1.356 6.493 1.356a9.305 9.305 0 0 0 4.729-1.305 9.589 9.589 0 0 0 4.754-8.261c.04-3.502-1.25-5.83-1.772-6.86C38.916 7.724 31.77 4 24 4A19.998 19.998 0 0 0 4 23.716c.075-5.708 5.75-10.319 12.499-10.319.546 0 3.665.053 6.561 1.574 2.553 1.34 3.89 2.959 4.82 4.563.966 1.667 1.137 3.773 1.137 4.612 0 .84-.428 2.083-1.218 3.11Z"/><defs><radialGradient id="b" cx="0" cy="0" r="1" gradientTransform="matrix(14.9014 0 0 14.1564 28.564 31.88)" gradientUnits="userSpaceOnUse"><stop offset=".72" stop-opacity="0"/><stop offset=".95" stop-opacity=".53"/><stop offset="1"/></radialGradient><radialGradient id="d" cx="0" cy="0" r="1" gradientTransform="matrix(3.35695 -22.15492 17.8989 2.71207 15.03 35.092)" gradientUnits="userSpaceOnUse"><stop offset=".76" stop-opacity="0"/><stop offset=".95" stop-opacity=".5"/><stop offset="1"/></radialGradient><radialGradient id="e" cx="0" cy="0" r="1" gradientTransform="matrix(-1.26504 31.6261 -67.35704 -2.69427 8.042 11.402)" gradientUnits="userSpaceOnUse"><stop stop-color="#35C1F1"/><stop offset=".11" stop-color="#34C1ED"/><stop offset=".23" stop-color="#2FC2DF"/><stop offset=".31" stop-color="#2BC3D2"/><stop offset=".67" stop-color="#36C752"/></radialGradient><radialGradient id="f" cx="0" cy="0" r="1" gradientTransform="matrix(4.25815 14.5994 -11.87222 3.46273 41.508 16.093)" gradientUnits="userSpaceOnUse"><stop stop-color="#66EB6E"/><stop offset="1" stop-color="#66EB6E" stop-opacity="0"/></radialGradient><linearGradient id="a" x1="13.175" x2="41.037" y1="31.661" y2="31.661" gradientUnits="userSpaceOnUse"><stop stop-color="#0C59A4"/><stop offset="1" stop-color="#114A8B"/></linearGradient><linearGradient id="c" x1="27.864" x2="10.461" y1="19.575" y2="38.531" gradientUnits="userSpaceOnUse"><stop stop-color="#1B9DE2"/><stop offset=".16" stop-color="#1595DF"/><stop offset=".67" stop-color="#0680D7"/><stop offset="1" stop-color="#0078D4"/></linearGradient></defs></svg>
